X: 8779
T: Cuckoo's Nest
R: polka
M: 2/4
K: Edorian
|:E>F GA|Be Bc|dd dB|A/B/A/F/ DF|
E>F GA|Be Bc|d/c/B/A/ FD|1 E2 EF:|2 E2 EB||
|:ee ef|eB Bc|dd dB|A/B/A/F/ DF|
E>F GA|Be Bc|d/c/B/A/ FD|1 E2 EB:|2 E2 EF||

